svgs/light/wave-square.svg

<svg xmlns="http://www.w3.org/2000/svg" viewBox="0 0 640 512"><!-- Font Awesome Pro 6.0.0-alpha2 by @fontawesome - https://fontawesome.com License - https://fontawesome.com/license (Commercial License) --><path d="M640 256C640 264.822 632.822 272 624 272H512C503.178 272 496 279.178 496 288V416C496 442.467 474.467 464 448 464H352C325.533 464 304 442.467 304 416V96C304 87.178 296.822 80 288 80H192C183.178 80 176 87.178 176 96V224C176 250.467 154.467 272 128 272H16C7.178 272 0 264.822 0 256S7.178 240 16 240H128C136.822 240 144 232.822 144 224V96C144 69.533 165.533 48 192 48H288C314.467 48 336 69.533 336 96V416C336 424.822 343.178 432 352 432H448C456.822 432 464 424.822 464 416V288C464 261.533 485.533 240 512 240H624C632.822 240 640 247.178 640 256Z"/></svg>

<svg xmlns="http://www.w3.org/2000/svg" viewBox="0 0 640 512"><!--! Font Awesome Pro 6.0.0-alpha3 by @fontawesome - https://fontawesome.com License - https://fontawesome.com/license (Commercial License) --><path d="M640 256C640 264.8 632.8 272 624 272H512c-8.822 0-16 7.178-16 16v128c0 26.47-21.53 48-48 48h-96c-26.47 0-48-21.53-48-48V96c0-8.822-7.178-16-16-16H192C183.2 80 176 87.18 176 96v128c0 26.47-21.53 48-48 48H16C7.178 272 0 264.8 0 256C0 247.2 7.178 240 16 240H128c8.822 0 16-7.178 16-16V96c0-26.47 21.53-48 48-48h96c26.47 0 48 21.53 48 48v320c0 8.822 7.178 16 16 16h96c8.822 0 16-7.178 16-16V288c0-26.47 21.53-48 48-48h112C632.8 240 640 247.2 640 256z"/></svg>
